X:1
T:Blues My Naughty Sweetie Gives To Me
T:Blues My Naughty Sweetie Gives To Me
T:1919
C:1919
L:1/8
M:4/4
K:Eb
V:1 treble nm="P1"
V:1
"Eb" ecB_G-"Abm7" GE"Bb7" F2 |"Eb" E E3- E4 |"Eb" ecB_G-"Abm7" GE"Bb7" F2 |"Eb" E8 | %4
w: What is that song * a- bout|kiss- es, *|What is that song * a- bout|smiles,|
w: ||||
w: ||||
"Bb7" BFGA- AG F2 |"Eb" cGAB-"C7" BA G2 |"F7" FG=AB c d3 |"Bb7" B8 |"Eb" ecB_G-"Abm7" GE"Bb7" F2 | %9
w: If I could have * my way,|I'd sing a song * to- day|That would beat them all by|miles.|I would- n't sing * a- bout|
w: |||||
w: |||||
"Eb" E E3- E4 |"Eb7" BGAB- BA G2 |"Ab" c8 |"Ab" c d2 e- ed c2 |"Gm" B c2 d- d3 B |"A7" =AABA B A3 | %15
w: smil- ing, *|That's not the ti- * tle I'd|choose,|I would sing * a- bout|what I've got, * And|what I've got's the wear- y|
w: ||||||
w: ||||||
"D7" d2 z2 =A B3 |:[K:Bb]"Gm" G8- | G2 GG"Ebdim" A2 B2 |"Gm" G4 G4- | G2 z2"G7" d e3 |"Cm" c8- | %21
w: blues. There are|Blues|* that you get from|wor- ry|* There are|Blues|
w: |Blues|* that you get when|sin- gle|* There are|Blues|
w: |Blues|* that you get from|sweet- ie|* When she|phones|
 c2 cc"Abdim" d2 e2 |"Cm" c8- | c2 =B2"Eb7" c2 ^c2 |"D7" d2 A2 _B2 =c2- | c2 B4 A2 | %26
w: * that you get from|pain,|* And there are|Blues when you're lone-|* ly For|
w: * that will give you|pain,|* And there are|Blues when you're lone-|* ly For|
w: * to an- th- er|guy,|* And there are|Blues when your hon-|* ey spends|
"Gm" d2 G2 A2 B2- | B2 A4 G2 |"A7" A2 A2 A2 B2- | B2 ^G2 A4 |"D7" d8- | d2 z2 A B3 |"Gm" G8- | %33
w: your one and on-|* ly, The|Blues you can nev-|* er ex-|plain;|* There are|Blues|
w: your one and on-|* ly, The|Blues you can nev-|* er ex-|plain;|* There are|Blues|
w: all of your mon-|* ey, And|Blues when she tells|* you a|lie;|* There are|Blues|
 G2 GG"Ebdim" A2 B2 |"Gm" G4 G4- | G2 z2"G7" d e3 |"Cm" c8- | c2 A2 B c3 |"D7" d8- | d2 z2 z2 d^c | %40
w: * that you get from|long- ing|* But the|blu-|* est Blues that|be|* Are the|
w: * that you get from|long- ing|* To hold|some-|* one on your|knee,|* But the|
w: * that you get when|mar- ried|* Wish- ing|that|* you could be|free,|* But the|
"G7" d2 =B2 =c2 ^c2 | d e2 d- d4 |"C7" G2 A2 _B2 c2 | B A2 G- G2 d2 |"F7" f2 e2 c2 A2 | %45
w: sort of Blues that's|on my mind, *|They're the ve- ry|mean- est kind, * The|Blues my naught- y|
w: kind of Blues that|al- way stabs, *|Come from hi- ring|tax- i cabs, * The|Blues my naught- y|
w: kind of Blues that's|good and blue, *|Comes from hav- ing|wine for two, * The|kind of Blues my|
"C7" G A2"F9" G- G2 F2 |"Bb" B6 z2 |"D7" z4 A B3 :| %48
w: sweet- ie gives * to|me.|There are|
w: sweet- ie gives * to|me.|There are|
w: sweet- ie gives * to|me.|There are|

